X:1
T:Vinterkomplexet
R:Polska
C:Olle Lindvall
Z:ABC-transkribering av Olle Lindvall
M:3/4
L:1/8
K:C
dc/d/ ed z A|c2- cB/c/ dc/d/|e/g/f/e/ de/f/ fe|ed/c/ B/c/d/B/ cA-|
A2 B2 c2|dc/d/ ed z A|c2- c/B/c/d/ ed/c/|cd d4:|
|:a/f/d e/c/A-  Ae/g/| \
M:2/4
f/e/d/c/ d/e/f/g/| \
M:3/4
a/f/d e/c/A- Ae/g/|f/e/d/c/ cd d2:|

